X:1
T:Title
%%score ( 1 2 ) { 3 | 4 }
L:1/8
Q:1/4=95
M:4/4
K:G
V:1 treble nm="Grand Piano, Soprano"
V:2 treble 
V:3 treble nm="Choir Pad, The Resurrection Morning"
V:4 bass 
V:1
 G[GA][GB][GB] [GB][GB] [GB]2 | G[GB][Gd][Gd] [Gd][Gd] [GB]2 | [GB][FA]GG GG[EG][^CE] | %3
w: By~Haldor~Lillenas * * * * * *|||
 [DF][EG] [FA]6 | G[GA][GB][GB] [GB][GB] [GB]2 | G[GB][Gd][Gd] [Gd][Gd] [Ge]2 | %6
w: |||
 [Ge][Ge][Gd][Gd] [Gd][Fc][GB][GB] | [FA][FA] G2 EE D2 | [GB][Gc][Gd][Gd] [Gd][Gd][Gd][Gd] | %9
w: |||
 [GB][Gc] [Gd]6 | G[GA][GB][GB] [GB][GB][Gd][Gd] | [Ac][GB] A2- [GA-][GA-] [FA]2 | %12
w: |||
 G[GA][GB][GB] [GB][GB] [GB]2 | G[GB][Gd][Gd] [Gd][Gd] [Ge]2 | [Ge][Ge][Gd][Gd] [Gd][Fc][GB][GB] | %15
w: |||
 z2 G6- | G6 z2 |] %17
w: ||
V:2
 x8 | x8 | x8 | x8 | x8 | x8 | x8 | x8 | x8 | x8 | x8 | z2 F2 z4 | x8 | x8 | x8 | %15
 [FA][FA] z2 EE D2- | D6 z2 |] %17
V:3
 B,CDD DD D2 | B,DB,B, B,B,[K:treble] D2 | DCB,B,[K:bass] B,B,^CC | A,A, A,6 | %4
w: 1.~~ * * * * * *||||
 B,[K:treble]CDD DD D2 | B,DB,B, B,B,[K:treble] C2 | CCB,B, B,A,DD | CC B,2 CC[K:bass] B,2 | %8
w: ||||
 G,A,B,B, B,B,B,B, | G,A, B,2 B,B, B,2 | B,[K:treble]CDD DDB,B, | DD D2 ^CC =C2 | B,CDD DD D2 | %13
w: |||||
 B,DB,B, B,B,[K:treble] C2 | CCB,B, B,A,DD | CC[K:bass] B,2 CC B,2- | B,6 z2 |] %17
w: ||||
V:4
 G,G,G,G, G,G, G,2 | G,G,G,G, G,G, G,2 | G,D,E,E, E,E,A,,A,, | A,,^C, D,6 | G,G,G,G, G,G, G,2 | %5
 G,G,G,G, G,G, C,2 | C,C,D,D, D,D,D,D, | D,D, G,,6 | z G,G,G, G,G,G,G, | z G, G,2 G,G, G,2 | %10
 G,G,G,G, G,G,G,G, | G,G, D,2 E,E, D,2 | G,G,G,G, G,G, G,2 | G,G,G,G, G,G, C,2 | %14
 C,C,D,D, D,D,D,D, | D,D, G,,6- | G,,6 z2 |] %17

